other/easer.svg

<?xml version="1.0" encoding="UTF-8" standalone="no"?>
<svg
   xmlns:dc="http://purl.org/dc/elements/1.1/"
   xmlns:cc="http://creativecommons.org/ns#"
   xmlns:rdf="http://www.w3.org/1999/02/22-rdf-syntax-ns#"
   xmlns:svg="http://www.w3.org/2000/svg"
   xmlns="http://www.w3.org/2000/svg"
   xmlns:sodipodi="http://sodipodi.sourceforge.net/DTD/sodipodi-0.dtd"
   xmlns:inkscape="http://www.inkscape.org/namespaces/inkscape"
   width="48"
   height="48"
   viewBox="0 0 48 48"
   version="1.1"
   id="svg4"
   sodipodi:docname="easer.svg"
   inkscape:version="0.92.3 (2405546, 2018-03-11)">
  <metadata
     id="metadata10">
    <rdf:RDF>
      <cc:Work
         rdf:about="">
        <dc:format>image/svg+xml</dc:format>
        <dc:type
           rdf:resource="http://purl.org/dc/dcmitype/StillImage" />
        <dc:title />
      </cc:Work>
    </rdf:RDF>
  </metadata>
  <defs
     id="defs8" />
  <sodipodi:namedview
     pagecolor="#ffffff"
     bordercolor="#666666"
     borderopacity="1"
     objecttolerance="10"
     gridtolerance="10"
     guidetolerance="10"
     inkscape:pageopacity="0"
     inkscape:pageshadow="2"
     inkscape:window-width="2560"
     inkscape:window-height="1385"
     id="namedview6"
     showgrid="false"
     inkscape:pagecheckerboard="true"
     inkscape:zoom="32"
     inkscape:cx="6.2694616"
     inkscape:cy="18.48922"
     inkscape:window-x="1920"
     inkscape:window-y="27"
     inkscape:window-maximized="1"
     inkscape:current-layer="svg4" />
  <path
     d="M 24,2 C 11.849736,2 2,11.849736 2,24 2,36.150264 11.849736,46 24,46 36.150264,46 46,36.150264 46,24 46,11.849736 36.150264,2 24,2 Z m 6.092766,5.5428833 c 1.002348,0.2699041 1.613627,2.4852987 1.614265,3.3907107 6.38e-4,0.905412 0,1.328125 0,1.328125 0,0 -5.765746,-0.496669 -5.761719,0.285151 0.004,0.78182 5.511719,0.697266 5.511719,0.697266 0,0 -1.063302,2.26754 -1.841797,2.861328 -0.794402,0.60592 -2.15839,1.153242 -3.732422,1.498047 -1.191503,0.26101 -1.180183,0.448163 0.553363,1.307182 2.013085,0.997538 4.10446,3.074643 5.032575,4.692818 1.440947,2.512302 0.83684,5.620663 -1.716797,8.835937 -1.041261,1.311047 -4.359209,4.221478 -6.1875,5.427735 -0.551153,0.363635 -1.277708,0.765693 -1.564673,1.445264 -0.536745,0.778321 -0.607012,1.119804 -1.473441,1.281126 -0.794519,0.05776 -1.132826,-0.06112 -1.58298,-0.53889 -1.104809,-1.17259 -0.09437,-3.177115 1.462891,-3.232422 0.902159,0.185377 2.030026,-0.646589 4.689453,-2.837891 3.58561,-2.954458 5.479255,-6.028484 4.96875,-8.0625 -0.158123,-0.630009 -0.254658,-0.558573 -2.535156,1.839844 -2.479858,2.608087 -4.55285,4.308587 -6.802735,5.582031 -0.739446,0.41853 -1.435029,1.019478 -1.560546,1.349609 -0.339644,0.578739 -1.198005,1.07806 -1.666679,1.105403 -0.207958,0.01213 -0.953598,0.07371 -1.370431,-0.343121 -0.610942,-0.610941 -0.762307,-1.156114 -0.678827,-1.680979 0.208479,-0.988561 0.976797,-1.79024 2.373014,-1.817532 1.488268,0.376868 1.632193,-0.282452 3.171048,-1.33213 2.127189,-1.45099 4.548472,-3.65843 6.255859,-5.705078 1.248976,-1.497149 1.341386,-1.815873 0.65625,-2.248047 -0.30795,-0.194249 -0.952634,0.324205 -3.115234,2.501953 -1.500486,1.510997 -3.263721,3.077238 -3.917969,3.482422 -0.654248,0.405185 -1.038617,0.578595 -1.191406,1.033203 -0.178647,0.664511 -1.361996,1.281184 -1.993314,1.281184 -0.881957,0 -1.84077,-0.83894 -1.84077,-1.661017 -0.1294,-1.728727 1.175287,-2.455406 2.511818,-2.147511 0.698002,0.139601 1.005536,-0.07328 2.269531,-1.023437 1.437492,-1.080583 4.814453,-4.52484 4.814453,-4.910156 0,-0.0927 -0.22718,-0.227906 -0.505859,-0.300782 -0.37186,-0.09724 -0.855279,0.212766 -1.816406,1.164063 -0.720286,0.71292 -2.041876,1.67772 -2.9375,2.144531 -0.895624,0.466812 -1.728673,1.201735 -2.227258,1.731462 -0.707595,0.75179 -1.139681,0.836473 -1.845008,0.700179 -1.56015,-0.301477 -2.194018,-2.066471 -1.189453,-3.16211 0.805525,-0.878554 1.386588,-0.918375 2.269531,-0.605468 1.849679,0.655509 4.39025,-2.330691 5.510479,-3.911497 0.871601,-1.229958 0.282248,-1.244753 -0.680401,-1.244753 -1.286299,0 -3.095081,-0.933631 -3.636718,-1.878907 -0.531683,-0.954093 -0.775391,-2.621093 -0.775391,-2.621093 0,0 5.432837,0.23244 5.455078,-0.634759 0.02224,-0.867199 -5.576172,-0.347658 -5.576172,-0.347658 0,0 -0.187549,-0.467329 -0.167969,-1.328125 0.01958,-0.860796 0.474002,-2.9341844 1.336666,-3.2236497 4.53657,-1.1310264 7.114697,-1.2803267 11.435788,-0.167061 z M 19.931641,10.763671 c 0.01127,1.143918 9.090853,1.058078 9.101562,0 0.01071,-1.0580777 -9.112835,-1.1439177 -9.101562,0 z m 0.751953,3.332032 c -0.03148,0.919482 7.147402,0.708912 7.207031,0 0.05963,-0.708912 -7.175551,-0.919482 -7.207031,0 z"
     id="circle2"
     style="fill:#ffffff;fill-opacity:1;stroke:none;stroke-opacity:1"
     inkscape:connector-curvature="0"
     sodipodi:nodetypes="sssssczczcssssscccscscsscssccsscsccscccscsssssssscczczcczzzzzz" />
  <circle
     style="fill:#ffffff;fill-opacity:1;stroke:none;stroke-width:2;stroke-linecap:round;stroke-miterlimit:4;stroke-dasharray:none;stroke-opacity:1"
     id="path814"
     cx="16.334747"
     cy="24.737289"
     r="0.86440676" />
  <circle
     style="fill:#ffffff;fill-opacity:1;stroke:none;stroke-width:2;stroke-linecap:round;stroke-miterlimit:4;stroke-dasharray:none;stroke-opacity:1"
     id="path814-3"
     cx="17.796612"
     cy="29.072033"
     r="0.86440676" />
  <circle
     style="fill:#ffffff;fill-opacity:1;stroke:none;stroke-width:2;stroke-linecap:round;stroke-miterlimit:4;stroke-dasharray:none;stroke-opacity:1"
     id="path814-6"
     cx="20.264393"
     cy="38.739338"
     r="0.86440676" />
  <circle
     style="fill:#ffffff;fill-opacity:1;stroke:none;stroke-width:2;stroke-linecap:round;stroke-miterlimit:4;stroke-dasharray:none;stroke-opacity:1"
     id="path814-3-7"
     cx="17.36787"
     cy="33.912346"
     r="0.86440676" />
</svg>

<?xml version="1.0" encoding="UTF-8" standalone="no"?>
<svg
   xmlns:dc="http://purl.org/dc/elements/1.1/"
   xmlns:cc="http://creativecommons.org/ns#"
   xmlns:rdf="http://www.w3.org/1999/02/22-rdf-syntax-ns#"
   xmlns:svg="http://www.w3.org/2000/svg"
   xmlns="http://www.w3.org/2000/svg"
   xmlns:sodipodi="http://sodipodi.sourceforge.net/DTD/sodipodi-0.dtd"
   xmlns:inkscape="http://www.inkscape.org/namespaces/inkscape"
   width="48"
   height="48"
   viewBox="0 0 48 48"
   version="1.1"
   id="svg4"
   sodipodi:docname="easer.svg"
   inkscape:version="0.92.3 (2405546, 2018-03-11)">
  <metadata
     id="metadata10">
    <rdf:RDF>
      <cc:Work
         rdf:about="">
        <dc:format>image/svg+xml</dc:format>
        <dc:type
           rdf:resource="http://purl.org/dc/dcmitype/StillImage" />
        <dc:title></dc:title>
      </cc:Work>
    </rdf:RDF>
  </metadata>
  <defs
     id="defs8" />
  <sodipodi:namedview
     pagecolor="#ffffff"
     bordercolor="#666666"
     borderopacity="1"
     objecttolerance="10"
     gridtolerance="10"
     guidetolerance="10"
     inkscape:pageopacity="0"
     inkscape:pageshadow="2"
     inkscape:window-width="2560"
     inkscape:window-height="1385"
     id="namedview6"
     showgrid="false"
     inkscape:pagecheckerboard="true"
     inkscape:zoom="3.4766083"
     inkscape:cx="-43.292022"
     inkscape:cy="21.72061"
     inkscape:window-x="1920"
     inkscape:window-y="27"
     inkscape:window-maximized="1"
     inkscape:current-layer="svg4" />
  <path
     d="M 24 2 A 22 22 0 0 0 2 24 A 22 22 0 0 0 24 46 A 22 22 0 0 0 46 24 A 22 22 0 0 0 24 2 z M 23.691406 7.5214844 C 26.793425 7.4734124 29.054 7.5494433 29.697266 7.7226562 C 31.058696 8.0892515 31.705756 9.1227706 31.707031 10.933594 L 31.707031 12.263672 L 28.826172 12.185547 C 26.219096 12.115157 25.944867 12.150216 25.945312 12.546875 C 25.945752 12.937815 26.243837 12.984375 28.701172 12.984375 C 30.441719 12.984375 31.457031 13.079607 31.457031 13.244141 C 31.457031 13.858971 30.393729 15.511681 29.615234 16.105469 C 28.820832 16.711389 27.456844 17.258711 25.882812 17.603516 C 24.691309 17.864526 25.02622 18.555043 26.759766 19.414062 C 28.772851 20.4116 30.540635 21.985341 31.46875 23.603516 C 32.909697 26.115818 32.30559 29.224179 29.751953 32.439453 C 28.710692 33.7505 25.392744 36.660931 23.564453 37.867188 C 23.0133 38.230823 22.336463 38.953289 22.060547 39.472656 C 21.617715 40.30622 21.436962 40.426732 20.509766 40.494141 C 19.715247 40.551901 19.332746 40.444075 18.943359 40.054688 C 17.804155 38.915484 18.826895 36.656602 20.40625 36.822266 C 21.225545 36.908206 22.436276 36.175677 25.095703 33.984375 C 28.681313 31.029917 30.574958 27.955891 30.064453 25.921875 C 29.90633 25.291866 29.809795 25.363302 27.529297 27.761719 C 25.049439 30.369806 22.976447 32.070306 20.726562 33.34375 C 19.987116 33.76228 19.291533 34.363228 19.166016 34.693359 C 18.947466 35.268192 18.050705 35.783203 17.265625 35.783203 C 17.057313 35.783203 16.545739 35.44027 16.128906 35.023438 C 15.517964 34.412497 15.404735 34.134273 15.539062 33.583984 C 15.823816 32.417457 16.541283 31.908151 17.9375 31.880859 C 19.005923 31.859979 19.455286 31.674678 20.994141 30.625 C 23.12133 29.17401 25.542613 26.96657 27.25 24.919922 C 28.498976 23.422773 28.591386 23.104049 27.90625 22.671875 C 27.5983 22.477626 26.953616 22.99608 24.791016 25.173828 C 23.29053 26.684825 21.527295 28.251066 20.873047 28.65625 C 20.218799 29.061435 19.681888 29.527218 19.681641 29.689453 C 19.68096 30.137862 18.434052 31.021484 17.802734 31.021484 C 16.920777 31.021484 15.923828 30.093561 15.923828 29.271484 C 15.923828 28.87939 15.994487 28.375392 16.080078 28.152344 C 16.317368 27.533976 17.546847 26.999603 18.359375 27.162109 C 18.94285 27.278804 19.364911 27.088832 20.628906 26.138672 C 22.066398 25.058089 25.443359 21.613832 25.443359 21.228516 C 25.443359 21.135816 25.216179 21.00061 24.9375 20.927734 C 24.56564 20.830494 24.082221 21.1405 23.121094 22.091797 C 22.400808 22.804717 21.079218 23.769517 20.183594 24.236328 C 19.28797 24.70314 18.187972 25.476199 17.740234 25.955078 C 17.035139 26.709213 16.816655 26.804263 16.111328 26.667969 C 14.551178 26.366492 13.870787 24.556948 14.921875 23.505859 C 15.470809 22.956926 15.530106 22.940827 17.191406 22.900391 C 19.331031 22.848311 22.46573 20.421348 22.845703 18.521484 C 22.998213 17.758936 22.984133 17.744141 22.021484 17.744141 C 20.735185 17.744141 18.926403 16.81051 18.384766 15.865234 C 18.147509 15.451166 17.876209 14.62509 17.78125 14.03125 L 17.609375 12.951172 L 20.335938 13.03125 C 22.92351 13.10607 23.064474 13.084583 23.064453 12.609375 C 23.064433 12.133711 22.92436 12.112181 20.277344 12.185547 L 17.488281 12.261719 L 17.320312 11.371094 C 17.079812 10.08912 17.381201 8.8573371 18.097656 8.1835938 C 18.699758 7.6173895 18.877177 7.5960913 23.691406 7.5214844 z M 24.064453 9.9785156 C 21.173445 9.9785156 19.931641 10.213982 19.931641 10.763672 C 19.931641 11.175213 20.142717 11.230469 21.701172 11.230469 C 22.762559 11.176959 23.278616 11.458888 23.503906 11.523438 C 23.730145 11.340051 24.287482 11.211217 24.742188 11.236328 C 25.196893 11.261438 26.375263 11.269829 27.361328 11.255859 C 28.981727 11.232919 29.143697 11.186201 29.033203 10.763672 C 28.895206 10.235973 27.265803 9.9785156 24.064453 9.9785156 z M 22 13.949219 C 21.022326 13.977129 20.683594 14.081634 20.683594 14.357422 C 20.683594 14.561479 20.99413 14.797287 21.373047 14.880859 C 21.751965 14.964429 22.174712 15.075743 22.3125 15.128906 C 22.785958 15.31158 25.57035 14.96657 26.775391 14.576172 C 27.438812 14.361243 27.940344 14.145422 27.890625 14.095703 C 27.785457 13.990535 23.919245 13.894429 22 13.949219 z M 16.269531 24.048828 C 15.793642 24.101991 15.553225 24.583569 15.771484 25.152344 C 15.862024 25.388287 16.147549 25.512951 16.486328 25.464844 C 16.900377 25.406044 17.050781 25.218909 17.050781 24.759766 C 17.050781 24.300623 16.900377 24.111529 16.486328 24.052734 C 16.409382 24.041808 16.337515 24.041233 16.269531 24.048828 z M 17.833984 28.269531 C 17.227256 28.277731 16.873676 28.711038 17.041016 29.238281 C 17.244641 29.879846 18.299059 29.966408 18.53125 29.361328 C 18.701898 28.916628 18.284681 28.263411 17.833984 28.269531 z M 17.246094 33.066406 C 17.01837 33.092417 16.841342 33.207806 16.773438 33.384766 C 16.523998 34.034793 16.872717 34.571785 17.488281 34.484375 C 17.902331 34.425575 18.052734 34.236487 18.052734 33.777344 C 18.052734 33.3182 17.902331 33.131062 17.488281 33.072266 C 17.403587 33.060241 17.322002 33.057736 17.246094 33.066406 z M 20.416016 37.974609 C 20.015141 37.925166 19.681641 38.24147 19.681641 38.777344 C 19.681641 39.660956 20.53396 39.776447 21.033203 38.960938 C 21.254844 38.598889 21.214023 38.437504 20.830078 38.152344 C 20.691369 38.049323 20.54964 37.991091 20.416016 37.974609 z "
     id="circle2"
     style="fill:#ffffff;fill-opacity:1;stroke:none;stroke-opacity:1" />
</svg>
